X:459
T:Martha's Carpet 
C:Joe Buchanan's Scottish Tome - Page 328.0
I:328 0
C:Donald MacFarlane
R:Pipe March
Z:Carl Allison
L:1/16
M:2/4
K:C
e>d | c>BA>c e>Ac<A | d>fa>f e>fc>e | f>Ae>A c2B>A | f<ae>c B2e>d |
c>BA>c e>Ac<A | d>fa>f e>fc<e | d>ef<a e>fB<e | c2A2 A2 :|
f>g | a2f<a e2A<c | A<Aa>e c2e2 | f>Ae>A c2>BA | f<ae>c B2f>g |
a2f<a e2A<c | A<Aa>e c2e2 | d>ef<a e>fB<e | c2A2 A2 :|
c>d | e>fe>c a>af<a | f>da>f e>fc>e | f>Ae>A c2B<A | f<ae>c B2c>d |
e>fe>c a>af<a | f>da<f e>fc>e | d>ef<a e>fB<e | c2A2 A2 :|
f>g | a2e>f a>ec<e | f2a>f e>fc<A | f>Ae>A c2B<A | f<ae>c B2f>g |
a2e>f a>ec<e | f2a>f e>fc<A | d>ef>a e>fB<e | c2A2 A2 :|

